X: 39092
T: Sweeney's Dream
R: reel
M: 4/4
K: Dmajor
|:dF F2 ABdf|gfeg fdBc|dF F2 ABdB|AFDF E2 D2:|
fa a2 afdf|gfed Bd d2|fa a2 bf f2|gfeg fd d2|
fa a2 bf f2|gfeg fdBc|dF F2 ABdf|gfeg f3e||

